public/images/ui-logo.svg

<?xml version="1.0" encoding="UTF-8"?>
<svg width="118px" height="58px" viewBox="0 0 118 58" version="1.1" xmlns="http://www.w3.org/2000/svg" xmlns:xlink="http://www.w3.org/1999/xlink">
    <title>ui-logo</title>
    <g id="Page-1" stroke="none" stroke-width="1" fill="none" fill-rule="evenodd">
        <g id="Group">
            <rect id="Rectangle" fill="#8330FF" fill-rule="nonzero" x="0" y="29" width="118" height="29"></rect>
            <rect id="Rectangle" fill="#0000C2" fill-rule="nonzero" transform="translate(103.500000, 14.500000) scale(-1, 1) translate(-103.500000, -14.500000) " x="89" y="0" width="29" height="29"></rect>
            <path d="M101.376,20.224 C102.293333,20.224 103.08,20.056 103.736,19.72 C104.392,19.384 104.893333,18.904 105.24,18.28 C105.586667,17.656 105.76,16.9173333 105.76,16.064 L105.76,16.064 L105.76,8.8 L103.648,8.8 L103.648,16.128 C103.648,16.8106667 103.453333,17.3493333 103.064,17.744 C102.674667,18.1386667 102.112,18.336 101.376,18.336 C100.64,18.336 100.077333,18.1386667 99.688,17.744 C99.2986667,17.3493333 99.104,16.8106667 99.104,16.128 L99.104,16.128 L99.104,8.8 L96.992,8.8 L96.992,16.064 C96.992,16.9173333 97.1653333,17.656 97.512,18.28 C97.8586667,18.904 98.36,19.384 99.016,19.72 C99.672,20.056 100.458667,20.224 101.376,20.224 Z M109.92,20 L109.92,8.8 L107.808,8.8 L107.808,20 L109.92,20 Z" id="UI" fill="#F9FCFD" fill-rule="nonzero"></path>
            <rect id="Rectangle" fill="#46ECA1" fill-rule="nonzero" transform="translate(44.500000, 14.500000) scale(-1, 1) translate(-44.500000, -14.500000) " x="0" y="0" width="89" height="29"></rect>
            <g id="Group-9" transform="translate(3.000000, 3.000000)" fill-rule="nonzero">
                <g id="Group">
                    <circle id="Oval" fill="#8330FF" cx="1.5" cy="1.5" r="1.5"></circle>
                    <circle id="Oval" fill="#8330FF" cx="31.5" cy="1.5" r="1.5"></circle>
                    <circle id="Oval" fill="#0000C2" cx="61.5" cy="1.5" r="1.5"></circle>
                    <circle id="Oval" fill="#8330FF" cx="11.5" cy="11.5" r="1.5"></circle>
                    <circle id="Oval" fill="#0000C2" cx="41.5" cy="11.5" r="1.5"></circle>
                    <circle id="Oval" fill="#8330FF" cx="71.5" cy="11.5" r="1.5"></circle>
                    <circle id="Oval" fill="#8330FF" cx="71.5" cy="1.5" r="1.5"></circle>
                    <circle id="Oval" fill="#8330FF" cx="51.5" cy="11.5" r="1.5"></circle>
                    <circle id="Oval" fill="#8330FF" cx="21.5" cy="21.5" r="1.5"></circle>
                    <circle id="Oval" fill="#8330FF" cx="51.5" cy="21.5" r="1.5"></circle>
                    <circle id="Oval" fill="#8330FF" cx="81.5" cy="21.5" r="1.5"></circle>
                    <circle id="Oval" fill="#0000C2" cx="31.5" cy="11.5" r="1.5"></circle>
                    <circle id="Oval" fill="#8330FF" cx="61.5" cy="11.5" r="1.5"></circle>
                </g>
            </g>
            <path d="M34.5,3 C35.3284271,3 36,3.67157288 36,4.5 C36,5.32842712 35.3284271,6 34.5,6 C34.2929907,6 34.0957755,5.95806619 33.9163857,5.8822297 L25.8571144,13.8602337 C25.948755,14.0542873 26,14.2711592 26,14.5 C26,15.3284271 25.3284271,16 24.5,16 C23.6715729,16 23,15.3284271 23,14.5 C23,14.2734983 23.0502028,14.058722 23.1400881,13.8661914 L15.0343541,5.90202757 C14.8683587,5.96533001 14.6882282,6 14.5,6 C14.3095399,6 14.1273705,5.96450292 13.9597469,5.89976364 L5.829789,13.8053197 C5.93850941,14.0130107 6,14.2493244 6,14.5 C6,15.3284271 5.32842712,16 4.5,16 C3.67157288,16 3,15.3284271 3,14.5 C3,13.6715729 3.67157288,13 4.5,13 C4.7116875,13 4.91313315,13.0438505 5.09574895,13.1229636 L13.1974561,5.24441079 C13.0718189,5.02504851 13,4.77091136 13,4.5 C13,3.67157288 13.6715729,3 14.5,3 C15.3284271,3 16,3.67157288 16,4.5 C16,4.77338921 15.9268613,5.02969596 15.799083,5.25042113 L23.8424468,13.1514295 C24.0409981,13.054436 24.2641419,13 24.5,13 C24.7339088,13 24.9553128,13.0535399 25.1526254,13.1490334 L33.1761681,5.20594334 C33.0637394,4.99554951 33,4.75521833 33,4.5 C33,3.67157288 33.6715729,3 34.5,3 Z" id="Combined-Shape" fill="#F9FCFD" fill-rule="nonzero"></path>
            <path d="M84.5,13 C85.3284271,13 86,13.6715729 86,14.5 C86,15.3284271 85.3284271,16 84.5,16 C84.2929907,16 84.0957755,15.9580662 83.9163857,15.8822297 L75.8571144,23.8602337 C75.948755,24.0542873 76,24.2711592 76,24.5 C76,25.3284271 75.3284271,26 74.5,26 C73.6715729,26 73,25.3284271 73,24.5 C73,24.2734983 73.0502028,24.058722 73.1400881,23.8661914 L65.0343541,15.9020276 C64.8683587,15.96533 64.6882282,16 64.5,16 C64.3095399,16 64.1273705,15.9645029 63.9597469,15.8997636 L55.829789,23.8053197 C55.9385094,24.0130107 56,24.2493244 56,24.5 C56,25.3284271 55.3284271,26 54.5,26 C53.6715729,26 53,25.3284271 53,24.5 C53,23.6715729 53.6715729,23 54.5,23 C54.7116875,23 54.9131332,23.0438505 55.095749,23.1229636 L63.1974561,15.2444108 C63.0718189,15.0250485 63,14.7709114 63,14.5 C63,13.6715729 63.6715729,13 64.5,13 C65.3284271,13 66,13.6715729 66,14.5 C66,14.7733892 65.9268613,15.029696 65.799083,15.2504211 L73.8424468,23.1514295 C74.0409981,23.054436 74.2641419,23 74.5,23 C74.7339088,23 74.9553128,23.0535399 75.1526254,23.1490334 L83.1761681,15.2059433 C83.0637394,14.9955495 83,14.7552183 83,14.5 C83,13.6715729 83.6715729,13 84.5,13 Z" id="Combined-Shape" fill="#F9FCFD" fill-rule="nonzero"></path>
            <circle id="Oval" fill="#0000C2" fill-rule="nonzero" cx="4.5" cy="24.5" r="1.5"></circle>
            <circle id="Oval" fill="#0000C2" fill-rule="nonzero" cx="34.5" cy="24.5" r="1.5"></circle>
            <circle id="Oval" fill="#0000C2" fill-rule="nonzero" cx="64.5" cy="24.5" r="1.5"></circle>
            <circle id="Oval" fill="#0000C2" fill-rule="nonzero" cx="14.5" cy="24.5" r="1.5"></circle>
            <circle id="Oval" fill="#8330FF" fill-rule="nonzero" cx="44.5" cy="24.5" r="1.5"></circle>
            <circle id="Oval" fill="#8330FF" fill-rule="nonzero" cx="44.5" cy="4.5" r="1.5"></circle>
            <circle id="Oval" fill="#0000C2" fill-rule="nonzero" cx="74.5" cy="24.5" r="1.5"></circle>
            <circle id="Oval" fill="#0000C2" fill-rule="nonzero" cx="24.5" cy="4.5" r="1.5"></circle>
            <circle id="Oval" fill="#0000C2" fill-rule="nonzero" cx="54.5" cy="4.5" r="1.5"></circle>
            <circle id="Oval" fill="#0000C2" fill-rule="nonzero" cx="84.5" cy="4.5" r="1.5"></circle>
            <circle id="Oval" fill="#8330FF" fill-rule="nonzero" cx="34.5" cy="24.5" r="1.5"></circle>
            <circle id="Oval" fill="#0000C2" fill-rule="nonzero" cx="64.5" cy="24.5" r="1.5"></circle>
            <path d="M14.104,49.708 C15.468,49.708 16.5533333,49.4073333 17.36,48.806 C18.1666667,48.2046667 18.57,47.3613333 18.57,46.276 C18.57,45.5426667 18.383,44.956 18.009,44.516 C17.635,44.076 17.1253333,43.7386667 16.48,43.504 C15.8346667,43.2693333 15.1233333,43.086 14.346,42.954 L14.346,42.954 L13.576,42.822 C12.9893333,42.7193333 12.5236667,42.5653333 12.179,42.36 C11.8343333,42.1546667 11.662,41.832 11.662,41.392 C11.662,40.9813333 11.838,40.6623333 12.19,40.435 C12.542,40.2076667 13.026,40.094 13.642,40.094 C14.2726667,40.094 14.8006667,40.2296667 15.226,40.501 C15.6513333,40.7723333 15.93,41.238 16.062,41.898 L16.062,41.898 L18.174,41.304 C17.9393333,40.3653333 17.4296667,39.621 16.645,39.071 C15.8603333,38.521 14.8593333,38.246 13.642,38.246 C12.3806667,38.246 11.3686667,38.5283333 10.606,39.093 C9.8433333,39.6576667 9.462,40.4533333 9.462,41.48 C9.462,42.1693333 9.638,42.734 9.99,43.174 C10.342,43.614 10.8186667,43.9586667 11.42,44.208 C12.0213333,44.4573333 12.6886667,44.648 13.422,44.78 L13.422,44.78 L14.17,44.912 C14.8886667,45.044 15.4313333,45.2126667 15.798,45.418 C16.1646667,45.6233333 16.348,45.946 16.348,46.386 C16.348,46.826 16.1536667,47.1853333 15.765,47.464 C15.3763333,47.7426667 14.8226667,47.882 14.104,47.882 C13.62,47.882 13.169,47.8086667 12.751,47.662 C12.333,47.5153333 11.9846667,47.266 11.706,46.914 C11.4273333,46.562 11.2293333,46.0853333 11.112,45.484 L11.112,45.484 L9,45.99 C9.2053333,47.2366667 9.7626667,48.168 10.672,48.784 C11.5813333,49.4 12.7253333,49.708 14.104,49.708 Z M28.2807979,49.4 L28.2807979,47.486 L26.0147979,47.486 C25.6041312,47.486 25.3987979,47.266 25.3987979,46.826 L25.3987979,46.826 L25.3987979,40.468 L28.6327979,40.468 L28.6327979,38.554 L25.3987979,38.554 L25.3987979,34.968 L23.1327979,34.968 L23.1327979,38.554 L20.1407979,38.554 L20.1407979,40.468 L23.1327979,40.468 L23.1327979,47.222 C23.1327979,47.882 23.3271312,48.41 23.7157979,48.806 C24.1044645,49.202 24.6287979,49.4 25.2887979,49.4 L25.2887979,49.4 L28.2807979,49.4 Z M34.6629946,49.708 C35.4109946,49.708 36.012328,49.6016667 36.4669946,49.389 C36.9216613,49.1763333 37.266328,48.9233333 37.5009946,48.63 C37.7356613,48.3366667 37.9116613,48.08 38.0289946,47.86 L38.0289946,47.86 L38.3589946,47.86 L38.3589946,47.926 C38.3589946,48.3806667 38.520328,48.74 38.8429946,49.004 C39.1656613,49.268 39.5836613,49.4 40.0969946,49.4 L40.0969946,49.4 L41.7909946,49.4 L41.7909946,47.508 L40.8669946,47.508 C40.456328,47.508 40.2509946,47.288 40.2509946,46.848 L40.2509946,46.848 L40.2509946,42.382 C40.2509946,41.062 39.8476613,40.0426667 39.0409946,39.324 C38.234328,38.6053333 37.1269946,38.246 35.7189946,38.246 C34.8096613,38.246 34.032328,38.3926667 33.3869946,38.686 C32.7416613,38.9793333 32.2246613,39.3643333 31.8359946,39.841 C31.447328,40.3176667 31.1649946,40.8493333 30.9889946,41.436 L30.9889946,41.436 L33.1009946,42.118 C33.2329946,41.5313333 33.504328,41.0546667 33.9149946,40.688 C34.3256613,40.3213333 34.9196613,40.138 35.6969946,40.138 C36.4889946,40.138 37.0756613,40.3286667 37.4569946,40.71 C37.838328,41.0913333 38.0289946,41.5973333 38.0289946,42.228 L38.0289946,42.228 L38.0289946,42.932 L34.7289946,42.932 C33.9369946,42.932 33.229328,43.0566667 32.6059946,43.306 C31.9826613,43.5553333 31.491328,43.9256667 31.1319946,44.417 C30.7726613,44.9083333 30.5929946,45.528 30.5929946,46.276 C30.5929946,47.0093333 30.7726613,47.6326667 31.1319946,48.146 C31.491328,48.6593333 31.975328,49.048 32.5839946,49.312 C33.1926613,49.576 33.8856613,49.708 34.6629946,49.708 Z M34.9929946,47.838 C34.3329946,47.838 33.812328,47.6913333 33.4309946,47.398 C33.0496613,47.1046667 32.8589946,46.7086667 32.8589946,46.21 C32.8589946,45.7113333 33.042328,45.3336667 33.4089946,45.077 C33.7756613,44.8203333 34.2596613,44.692 34.8609946,44.692 L34.8609946,44.692 L38.0289946,44.692 L38.0289946,44.912 C38.0289946,45.8213333 37.750328,46.5363333 37.1929946,47.057 C36.6356613,47.5776667 35.902328,47.838 34.9929946,47.838 Z M48.4701968,49.708 C49.5261968,49.708 50.3365301,49.5173333 50.9011968,49.136 C51.4658634,48.7546667 51.8875301,48.3293333 52.1661968,47.86 L52.1661968,47.86 L52.5181968,47.86 L52.5181968,49.4 L54.7401968,49.4 L54.7401968,34 L52.4741968,34 L52.4741968,40.028 L52.1221968,40.028 C51.9608634,39.7346667 51.7261968,39.4523333 51.4181968,39.181 C51.1101968,38.9096667 50.7178634,38.686 50.2411968,38.51 C49.7645301,38.334 49.1741968,38.246 48.4701968,38.246 C47.5608634,38.246 46.7248634,38.466 45.9621968,38.906 C45.1995301,39.346 44.5908634,39.984 44.1361968,40.82 C43.6815301,41.656 43.4541968,42.6533333 43.4541968,43.812 L43.4541968,43.812 L43.4541968,44.142 C43.4541968,45.3153333 43.6851968,46.3163333 44.1471968,47.145 C44.6091968,47.9736667 45.2215301,48.608 45.9841968,49.048 C46.7468634,49.488 47.5755301,49.708 48.4701968,49.708 Z M49.1081968,47.728 C48.1401968,47.728 47.3371968,47.4126667 46.6991968,46.782 C46.0611968,46.1513333 45.7421968,45.2493333 45.7421968,44.076 L45.7421968,44.076 L45.7421968,43.878 C45.7421968,42.7193333 46.0611968,41.8246667 46.6991968,41.194 C47.3371968,40.5633333 48.1401968,40.248 49.1081968,40.248 C50.1055301,40.248 50.9195301,40.5633333 51.5501968,41.194 C52.1808634,41.8246667 52.4961968,42.7193333 52.4961968,43.878 L52.4961968,43.878 L52.4961968,44.076 C52.4961968,45.2493333 52.1771968,46.1513333 51.5391968,46.782 C50.9011968,47.4126667 50.0908634,47.728 49.1081968,47.728 Z M65.141792,49.4 L65.141792,47.486 L62.875792,47.486 C62.465126,47.486 62.259792,47.266 62.259792,46.826 L62.259792,46.826 L62.259792,40.468 L65.493792,40.468 L65.493792,38.554 L62.259792,38.554 L62.259792,34.968 L59.9937925,34.968 L59.9937925,38.554 L57.0017925,38.554 L57.0017925,40.468 L59.9937925,40.468 L59.9937925,47.222 C59.9937925,47.882 60.1881258,48.41 60.5767925,48.806 C60.9654591,49.202 61.489792,49.4 62.149792,49.4 L62.149792,49.4 L65.141792,49.4 Z M70.423989,53.8 L70.423989,47.926 L70.775989,47.926 C70.951989,48.2193333 71.186656,48.5016667 71.479989,48.773 C71.773323,49.0443333 72.161989,49.268 72.645989,49.444 C73.129989,49.62 73.723989,49.708 74.427989,49.708 C75.337323,49.708 76.173323,49.488 76.935989,49.048 C77.698656,48.608 78.307323,47.9736667 78.761989,47.145 C79.216656,46.3163333 79.443989,45.3153333 79.443989,44.142 L79.443989,44.142 L79.443989,43.812 C79.443989,42.6386667 79.212989,41.6376667 78.750989,40.809 C78.288989,39.9803333 77.680323,39.346 76.924989,38.906 C76.169656,38.466 75.337323,38.246 74.427989,38.246 C73.371989,38.246 72.561656,38.4366667 71.996989,38.818 C71.432323,39.1993333 71.010656,39.632 70.731989,40.116 L70.731989,40.116 L70.379989,40.116 L70.379989,38.554 L68.157989,38.554 L68.157989,53.8 L70.423989,53.8 Z M73.767989,47.728 C72.799989,47.728 71.996989,47.4126667 71.358989,46.782 C70.720989,46.1513333 70.401989,45.2493333 70.401989,44.076 L70.401989,44.076 L70.401989,43.878 C70.401989,42.7193333 70.720989,41.8246667 71.358989,41.194 C71.996989,40.5633333 72.799989,40.248 73.767989,40.248 C74.750656,40.248 75.560989,40.5633333 76.198989,41.194 C76.836989,41.8246667 77.155989,42.7193333 77.155989,43.878 L77.155989,43.878 L77.155989,44.076 C77.155989,45.2493333 76.840656,46.1513333 76.209989,46.782 C75.579323,47.4126667 74.765323,47.728 73.767989,47.728 Z M86.413585,49.598 C87.440252,49.598 88.217585,49.4036667 88.745585,49.015 C89.273585,48.6263333 89.640252,48.212 89.845585,47.772 L89.845585,47.772 L90.197585,47.772 L90.197585,49.4 L92.419585,49.4 L92.419585,38.554 L90.153585,38.554 L90.153585,44.032 C90.153585,45.2053333 89.871252,46.1036667 89.306585,46.727 C88.741918,47.3503333 87.997585,47.662 87.073585,47.662 C86.237585,47.662 85.584918,47.4383333 85.115585,46.991 C84.646252,46.5436667 84.411585,45.8506667 84.411585,44.912 L84.411585,44.912 L84.411585,38.554 L82.145585,38.554 L82.145585,45.066 C82.145585,46.0046667 82.328918,46.8113333 82.695585,47.486 C83.062252,48.1606667 83.568252,48.6813333 84.213585,49.048 C84.858918,49.4146667 85.592252,49.598 86.413585,49.598 Z M98.035088,49.4 L98.035088,34 L95.769088,34 L95.769088,49.4 L98.035088,49.4 Z M105.834104,49.708 C107.198104,49.708 108.283437,49.4073333 109.090104,48.806 C109.89677,48.2046667 110.300104,47.3613333 110.300104,46.276 C110.300104,45.5426667 110.113104,44.956 109.739104,44.516 C109.365104,44.076 108.855437,43.7386667 108.210104,43.504 C107.56477,43.2693333 106.853437,43.086 106.076104,42.954 L106.076104,42.954 L105.306104,42.822 C104.719437,42.7193333 104.25377,42.5653333 103.909104,42.36 C103.564437,42.1546667 103.392104,41.832 103.392104,41.392 C103.392104,40.9813333 103.568104,40.6623333 103.920104,40.435 C104.272104,40.2076667 104.756104,40.094 105.372104,40.094 C106.00277,40.094 106.53077,40.2296667 106.956104,40.501 C107.381437,40.7723333 107.660104,41.238 107.792104,41.898 L107.792104,41.898 L109.904104,41.304 C109.669437,40.3653333 109.15977,39.621 108.375104,39.071 C107.590437,38.521 106.589437,38.246 105.372104,38.246 C104.11077,38.246 103.09877,38.5283333 102.336104,39.093 C101.573437,39.6576667 101.192104,40.4533333 101.192104,41.48 C101.192104,42.1693333 101.368104,42.734 101.720104,43.174 C102.072104,43.614 102.54877,43.9586667 103.150104,44.208 C103.751437,44.4573333 104.41877,44.648 105.152104,44.78 L105.152104,44.78 L105.900104,44.912 C106.61877,45.044 107.161437,45.2126667 107.528104,45.418 C107.89477,45.6233333 108.078104,45.946 108.078104,46.386 C108.078104,46.826 107.88377,47.1853333 107.495104,47.464 C107.106437,47.7426667 106.55277,47.882 105.834104,47.882 C105.350104,47.882 104.899104,47.8086667 104.481104,47.662 C104.063104,47.5153333 103.71477,47.266 103.436104,46.914 C103.157437,46.562 102.959437,46.0853333 102.842104,45.484 L102.842104,45.484 L100.730104,45.99 C100.935437,47.2366667 101.49277,48.168 102.402104,48.784 C103.311437,49.4 104.455437,49.708 105.834104,49.708 Z" id="stadtpuls" fill="#F9FCFD" fill-rule="nonzero"></path>
            <polyline id="Path-5" stroke="#0000C2" stroke-linecap="round" stroke-linejoin="round" transform="translate(19.500000, 14.500000) scale(-1, 1) translate(-19.500000, -14.500000) " points="4.5 14.5 14.5 4.5 24.5 24.5 34.5 24.4"></polyline>
            <polyline id="Path-5" stroke="#0000C2" stroke-linecap="round" stroke-linejoin="round" transform="translate(59.500000, 14.500000) scale(-1, 1) translate(-59.500000, -14.500000) " points="34.5 4.5 44.5 24.5 54.5 4.5 64.5 4.5 74.5 14.5 84.5 14.5"></polyline>
        </g>
    </g>
</svg>

<svg width="118" height="58" xmlns="http://www.w3.org/2000/svg"><g fill="none" fill-rule="evenodd"><path fill="#8330FF" fill-rule="nonzero" d="M0 29h118v29H0z"/><path fill="#0000C2" fill-rule="nonzero" d="M118 0H89v29h29z"/><path d="M101.376 20.224c.917 0 1.704-.168 2.36-.504a3.504 3.504 0 0 0 1.504-1.44c.347-.624.52-1.363.52-2.216V8.8h-2.112v7.328c0 .683-.195 1.221-.584 1.616-.39.395-.952.592-1.688.592s-1.299-.197-1.688-.592c-.39-.395-.584-.933-.584-1.616V8.8h-2.112v7.264c0 .853.173 1.592.52 2.216a3.504 3.504 0 0 0 1.504 1.44c.656.336 1.443.504 2.36.504ZM109.92 20V8.8h-2.112V20h2.112Z" fill="#F9FCFD" fill-rule="nonzero"/><path fill="#46ECA1" fill-rule="nonzero" d="M89 0H0v29h89z"/><g transform="translate(3 3)" fill-rule="nonzero"><circle fill="#8330FF" cx="1.5" cy="1.5" r="1.5"/><circle fill="#8330FF" cx="31.5" cy="1.5" r="1.5"/><circle fill="#0000C2" cx="61.5" cy="1.5" r="1.5"/><circle fill="#8330FF" cx="11.5" cy="11.5" r="1.5"/><circle fill="#0000C2" cx="41.5" cy="11.5" r="1.5"/><circle fill="#8330FF" cx="71.5" cy="11.5" r="1.5"/><circle fill="#8330FF" cx="71.5" cy="1.5" r="1.5"/><circle fill="#8330FF" cx="51.5" cy="11.5" r="1.5"/><circle fill="#8330FF" cx="21.5" cy="21.5" r="1.5"/><circle fill="#8330FF" cx="51.5" cy="21.5" r="1.5"/><circle fill="#8330FF" cx="81.5" cy="21.5" r="1.5"/><circle fill="#0000C2" cx="31.5" cy="11.5" r="1.5"/><circle fill="#8330FF" cx="61.5" cy="11.5" r="1.5"/></g><path d="M34.5 3a1.5 1.5 0 1 1-.584 2.882l-8.059 7.978a1.5 1.5 0 1 1-2.717.006l-8.106-7.964A1.497 1.497 0 0 1 13.96 5.9l-8.13 7.905a1.5 1.5 0 1 1-.734-.682l8.101-7.879a1.5 1.5 0 1 1 2.602.006l8.043 7.901a1.494 1.494 0 0 1 1.31-.002l8.024-7.943A1.5 1.5 0 0 1 34.5 3ZM84.5 13a1.5 1.5 0 1 1-.584 2.882l-8.059 7.978a1.5 1.5 0 1 1-2.717.006l-8.106-7.964a1.497 1.497 0 0 1-1.074-.002l-8.13 7.905a1.5 1.5 0 1 1-.734-.682l8.101-7.879a1.5 1.5 0 1 1 2.602.006l8.043 7.901a1.494 1.494 0 0 1 1.31-.002l8.024-7.943A1.5 1.5 0 0 1 84.5 13Z" fill="#F9FCFD" fill-rule="nonzero"/><circle fill="#0000C2" fill-rule="nonzero" cx="4.5" cy="24.5" r="1.5"/><circle fill="#0000C2" fill-rule="nonzero" cx="34.5" cy="24.5" r="1.5"/><circle fill="#0000C2" fill-rule="nonzero" cx="64.5" cy="24.5" r="1.5"/><circle fill="#0000C2" fill-rule="nonzero" cx="14.5" cy="24.5" r="1.5"/><circle fill="#8330FF" fill-rule="nonzero" cx="44.5" cy="24.5" r="1.5"/><circle fill="#8330FF" fill-rule="nonzero" cx="44.5" cy="4.5" r="1.5"/><circle fill="#0000C2" fill-rule="nonzero" cx="74.5" cy="24.5" r="1.5"/><circle fill="#0000C2" fill-rule="nonzero" cx="24.5" cy="4.5" r="1.5"/><circle fill="#0000C2" fill-rule="nonzero" cx="54.5" cy="4.5" r="1.5"/><circle fill="#0000C2" fill-rule="nonzero" cx="84.5" cy="4.5" r="1.5"/><circle fill="#8330FF" fill-rule="nonzero" cx="34.5" cy="24.5" r="1.5"/><circle fill="#0000C2" fill-rule="nonzero" cx="64.5" cy="24.5" r="1.5"/><path d="M14.104 49.708c1.364 0 2.45-.3 3.256-.902.807-.601 1.21-1.445 1.21-2.53 0-.733-.187-1.32-.561-1.76-.374-.44-.884-.777-1.529-1.012a12.24 12.24 0 0 0-2.134-.55l-.77-.132c-.587-.103-1.052-.257-1.397-.462-.345-.205-.517-.528-.517-.968 0-.41.176-.73.528-.957.352-.227.836-.341 1.452-.341.63 0 1.159.136 1.584.407.425.271.704.737.836 1.397l2.112-.594a3.752 3.752 0 0 0-1.529-2.233c-.785-.55-1.786-.825-3.003-.825-1.261 0-2.273.282-3.036.847-.763.565-1.144 1.36-1.144 2.387 0 .69.176 1.254.528 1.694.352.44.829.785 1.43 1.034a9.71 9.71 0 0 0 2.002.572l.748.132c.719.132 1.261.3 1.628.506.367.205.55.528.55.968 0 .44-.194.8-.583 1.078-.389.279-.942.418-1.661.418-.484 0-.935-.073-1.353-.22a2.266 2.266 0 0 1-1.045-.748c-.279-.352-.477-.829-.594-1.43L9 45.99c.205 1.247.763 2.178 1.672 2.794.91.616 2.053.924 3.432.924Zm14.177-.308v-1.914h-2.266c-.41 0-.616-.22-.616-.66v-6.358h3.234v-1.914h-3.234v-3.586h-2.266v3.586H20.14v1.914h2.992v6.754c0 .66.194 1.188.583 1.584.388.396.913.594 1.573.594h2.992Zm6.382.308c.748 0 1.35-.106 1.804-.319.455-.213.8-.466 1.034-.759.235-.293.41-.55.528-.77h.33v.066c0 .455.161.814.484 1.078.323.264.74.396 1.254.396h1.694v-1.892h-.924c-.41 0-.616-.22-.616-.66v-4.466c0-1.32-.403-2.34-1.21-3.058-.807-.719-1.914-1.078-3.322-1.078-.91 0-1.687.147-2.332.44-.645.293-1.162.678-1.551 1.155a4.586 4.586 0 0 0-.847 1.595l2.112.682c.132-.587.403-1.063.814-1.43.41-.367 1.005-.55 1.782-.55.792 0 1.379.19 1.76.572.381.381.572.887.572 1.518v.704h-3.3c-.792 0-1.5.125-2.123.374-.623.25-1.115.62-1.474 1.111-.36.491-.539 1.111-.539 1.859 0 .733.18 1.357.539 1.87.36.513.843.902 1.452 1.166.609.264 1.302.396 2.079.396Zm.33-1.87c-.66 0-1.18-.147-1.562-.44-.381-.293-.572-.69-.572-1.188 0-.499.183-.876.55-1.133.367-.257.85-.385 1.452-.385h3.168v.22c0 .91-.279 1.624-.836 2.145-.557.52-1.29.781-2.2.781Zm13.477 1.87c1.056 0 1.867-.19 2.431-.572.565-.381.987-.807 1.265-1.276h.352v1.54h2.222V34h-2.266v6.028h-.352a3.203 3.203 0 0 0-.704-.847c-.308-.271-.7-.495-1.177-.671-.476-.176-1.067-.264-1.77-.264-.91 0-1.746.22-2.509.66-.762.44-1.371 1.078-1.826 1.914-.454.836-.682 1.833-.682 2.992v.33c0 1.173.231 2.174.693 3.003.462.829 1.075 1.463 1.837 1.903.763.44 1.592.66 2.486.66Zm.638-1.98c-.968 0-1.77-.315-2.409-.946-.638-.63-.957-1.533-.957-2.706v-.198c0-1.159.32-2.053.957-2.684.638-.63 1.441-.946 2.41-.946.997 0 1.81.315 2.441.946.63.63.946 1.525.946 2.684v.198c0 1.173-.319 2.075-.957 2.706-.638.63-1.448.946-2.43.946ZM65.142 49.4v-1.914h-2.266c-.41 0-.616-.22-.616-.66v-6.358h3.234v-1.914H62.26v-3.586h-2.266v3.586h-2.992v1.914h2.992v6.754c0 .66.194 1.188.583 1.584.388.396.913.594 1.573.594h2.992Zm5.282 4.4v-5.874h.352c.176.293.41.576.704.847.293.271.682.495 1.166.671.484.176 1.078.264 1.782.264.91 0 1.745-.22 2.508-.66.763-.44 1.371-1.074 1.826-1.903.455-.829.682-1.83.682-3.003v-.33c0-1.173-.231-2.174-.693-3.003-.462-.829-1.07-1.463-1.826-1.903a4.871 4.871 0 0 0-2.497-.66c-1.056 0-1.866.19-2.431.572-.565.381-.986.814-1.265 1.298h-.352v-1.562h-2.222V53.8h2.266Zm3.344-6.072c-.968 0-1.771-.315-2.409-.946-.638-.63-.957-1.533-.957-2.706v-.198c0-1.159.319-2.053.957-2.684.638-.63 1.441-.946 2.409-.946.983 0 1.793.315 2.431.946.638.63.957 1.525.957 2.684v.198c0 1.173-.315 2.075-.946 2.706-.63.63-1.445.946-2.442.946Zm12.646 1.87c1.026 0 1.804-.194 2.332-.583.528-.389.894-.803 1.1-1.243h.352V49.4h2.222V38.554h-2.266v5.478c0 1.173-.283 2.072-.847 2.695-.565.623-1.31.935-2.233.935-.836 0-1.49-.224-1.958-.671-.47-.447-.704-1.14-.704-2.079v-6.358h-2.266v6.512c0 .939.183 1.745.55 2.42a3.893 3.893 0 0 0 1.518 1.562c.645.367 1.378.55 2.2.55Zm11.621-.198V34H95.77v15.4h2.266Zm7.8.308c1.363 0 2.448-.3 3.255-.902.807-.601 1.21-1.445 1.21-2.53 0-.733-.187-1.32-.56-1.76-.375-.44-.885-.777-1.53-1.012a12.24 12.24 0 0 0-2.134-.55l-.77-.132c-.587-.103-1.052-.257-1.397-.462-.345-.205-.517-.528-.517-.968 0-.41.176-.73.528-.957.352-.227.836-.341 1.452-.341.63 0 1.159.136 1.584.407.425.271.704.737.836 1.397l2.112-.594a3.752 3.752 0 0 0-1.529-2.233c-.785-.55-1.786-.825-3.003-.825-1.261 0-2.273.282-3.036.847-.763.565-1.144 1.36-1.144 2.387 0 .69.176 1.254.528 1.694.352.44.829.785 1.43 1.034a9.71 9.71 0 0 0 2.002.572l.748.132c.719.132 1.261.3 1.628.506.367.205.55.528.55.968 0 .44-.194.8-.583 1.078-.389.279-.942.418-1.66.418-.485 0-.936-.073-1.354-.22a2.266 2.266 0 0 1-1.045-.748c-.279-.352-.477-.829-.594-1.43l-2.112.506c.205 1.247.763 2.178 1.672 2.794.91.616 2.053.924 3.432.924Z" fill="#F9FCFD" fill-rule="nonzero"/><path stroke="#0000C2" stroke-linecap="round" stroke-linejoin="round" d="m34.5 14.5-10-10-10 20-10-.1M84.5 4.5l-10 20-10-20h-10l-10 10h-10"/></g></svg>
